X:61
T:Tombeau de Monsieur de Lully
C:Couperin, F.
M:4/4
L:1/8
Q:1/4=54
K:Amin
|:E2|A4 Bc de|f4 e2 A2|G4 FG AB|c4 B2 E2|
F4 GA Bc|d4 c2 F2|E4 DE FG|A4 A2:|

